Sources/FrostedUI/Resources/Icons.xcassets/gear20.imageset/gear-20.svg

<svg width="20" height="20" viewBox="0 0 20 20" fill="none" xmlns="http://www.w3.org/2000/svg" data-fui-icon="true">
  <path
    d="M10.8293 1.44727C11.8549 1.53938 12.7053 2.30853 12.887 3.33887L13.0051 4.01074C13.2713 4.13979 13.527 4.28583 13.7717 4.44629L14.4602 4.19922L14.6584 4.1377C15.6556 3.87606 16.7273 4.30373 17.26 5.20605H17.261L17.8586 6.21973H17.8577C18.4291 7.18784 18.2128 8.41991 17.3401 9.13086V9.13184L16.7903 9.5791C16.7995 9.71751 16.8049 9.85784 16.8049 10L16.7903 10.4199L17.3401 10.8682V10.8691C18.2127 11.58 18.4298 12.8122 17.8586 13.7803L17.261 14.7939H17.26C16.6917 15.7564 15.5103 16.1788 14.4602 15.8008L13.7717 15.5527C13.5271 15.7131 13.2712 15.8583 13.0051 15.9873L12.887 16.6611C12.7053 17.6915 11.8549 18.4606 10.8293 18.5527L10.6223 18.5625H9.36646C8.2502 18.5625 7.29583 17.7606 7.10181 16.6621L6.98169 15.9883C6.71515 15.8592 6.45846 15.7136 6.21313 15.5527L5.52856 15.7998L5.52759 15.8008C4.47764 16.1784 3.29692 15.7561 2.72876 14.7939V14.7949L2.13013 13.7812V13.7803C1.55846 12.8115 1.77629 11.5786 2.64868 10.8682L3.19751 10.4189L3.18384 10C3.18384 9.85795 3.18843 9.71728 3.19751 9.57812L2.64868 9.13086C1.77652 8.42038 1.55846 7.18741 2.13013 6.21875L2.72876 5.20508C3.29703 4.24322 4.47781 3.82161 5.52759 4.19922L6.21313 4.44531C6.45865 4.28435 6.71585 4.13896 6.98267 4.00977L7.10181 3.33789C7.29583 2.23935 8.2502 1.43754 9.36646 1.4375H10.6223L10.8293 1.44727ZM9.36646 2.9375C8.97867 2.93754 8.64595 3.21614 8.57837 3.59863V3.59961L8.38989 4.66309L8.3186 5.06934L7.93677 5.22656C7.51923 5.39782 7.12832 5.6198 6.77271 5.88477L6.44946 6.125L6.07056 5.98926L5.01978 5.61133C4.64388 5.47608 4.21975 5.62934 4.01978 5.96777V5.96875L3.42114 6.98242C3.22562 7.31447 3.30108 7.72747 3.59595 7.96777V7.96875L4.4563 8.66992L4.77954 8.93359L4.72681 9.34668C4.69902 9.56208 4.68384 9.78012 4.68384 10C4.68384 10.2193 4.69906 10.4369 4.72681 10.6523L4.77954 11.0654L4.45728 11.3291L3.59692 12.0312L3.59595 12.0322C3.30108 12.2725 3.22562 12.6855 3.42114 13.0176L4.01978 14.0312V14.0322C4.21975 14.3707 4.64389 14.5239 5.01978 14.3887L6.07056 14.0107L6.44946 13.873L6.77271 14.1143C7.0393 14.3129 7.32558 14.4876 7.62817 14.6348L7.93677 14.7725L8.3186 14.9297L8.38989 15.3359L8.57837 16.4004V16.4014C8.64595 16.7839 8.97867 17.0625 9.36646 17.0625H10.6223L10.7649 17.0498C11.0892 16.9911 11.3513 16.7359 11.4104 16.4014L11.5979 15.3369L11.6692 14.9297L12.052 14.7725C12.4686 14.6016 12.8582 14.3793 13.2141 14.1143L13.5374 13.874L13.9163 14.0098L14.968 14.3887C15.344 14.5241 15.769 14.3707 15.969 14.0322L16.5667 13.0186L16.6272 12.8896C16.7403 12.5843 16.6506 12.2412 16.3928 12.0312L15.5315 11.3311L15.2083 11.0674L15.261 10.6533C15.289 10.4359 15.3049 10.218 15.3049 10C15.3049 9.78194 15.289 9.56411 15.261 9.34668L15.2083 8.93262L15.5315 8.66895L16.3928 7.96777C16.6874 7.7277 16.7631 7.3142 16.5667 6.98145L15.969 5.96777C15.794 5.67153 15.4465 5.51648 15.1106 5.57324L14.968 5.61133L13.9163 5.98926L13.5374 6.125L13.2141 5.88477C12.8582 5.6197 12.4685 5.39737 12.052 5.22656L11.6692 5.06934L11.5979 4.66211L11.4104 3.59863C11.3513 3.26411 11.0892 3.00887 10.7649 2.9502L10.6223 2.9375H9.36646ZM10.0002 7.0625C11.6224 7.06266 12.9377 8.37776 12.9377 10C12.9377 11.6222 11.6224 12.9373 10.0002 12.9375C8.37791 12.9375 7.06274 11.6223 7.06274 10C7.06274 8.37766 8.37791 7.0625 10.0002 7.0625ZM10.0002 8.5625C9.20633 8.5625 8.56274 9.20609 8.56274 10C8.56274 10.7939 9.20633 11.4375 10.0002 11.4375C10.794 11.4373 11.4377 10.7938 11.4377 10C11.4377 9.20619 10.794 8.56266 10.0002 8.5625Z"
    fill="currentColor"
  />
</svg>

<svg xmlns="http://www.w3.org/2000/svg" width="20" height="20" fill="none" data-fui-icon="true" viewBox="0 0 20 20"><path fill="currentColor" d="M10.83 1.447a2.3 2.3 0 0 1 2.057 1.892l.118.672q.4.194.767.435l.688-.247.198-.061a2.34 2.34 0 0 1 2.602 1.068h.001l.598 1.014h-.001c.571.968.355 2.2-.518 2.91v.002l-.55.447q.015.208.015.421l-.015.42.55.448v.001c.873.711 1.09 1.943.519 2.911l-.598 1.014h-.001a2.34 2.34 0 0 1-2.8 1.007l-.688-.248q-.367.24-.767.434l-.118.674a2.3 2.3 0 0 1-2.058 1.892l-.207.01H9.366a2.3 2.3 0 0 1-2.264-1.9l-.12-.675a7 7 0 0 1-.769-.435l-.684.247h-.001a2.34 2.34 0 0 1-2.8-1.006l-.598-1.013a2.26 2.26 0 0 1 .519-2.913l.549-.45L3.184 10q0-.213.014-.422l-.55-.447a2.26 2.26 0 0 1-.518-2.912l.599-1.014A2.34 2.34 0 0 1 5.528 4.2l.685.246a7 7 0 0 1 .77-.435l.119-.672a2.3 2.3 0 0 1 2.264-1.9h1.256zm-1.464 1.49a.8.8 0 0 0-.788.662L8.39 4.664l-.071.406-.382.158a5.3 5.3 0 0 0-1.164.658l-.324.24-.378-.136-1.051-.378a.84.84 0 0 0-1 .357L3.42 6.983a.76.76 0 0 0 .175.986l.86.702.324.264-.053.413a5 5 0 0 0 0 1.305l.053.413-.323.264-.86.702-.001.001a.76.76 0 0 0-.175.986l.599 1.013v.001c.2.339.624.492 1 .357l1.05-.378.38-.138.323.241q.4.3.855.52l.309.139.382.157.07.406.19 1.064v.001a.8.8 0 0 0 .787.662h1.256l.143-.013a.8.8 0 0 0 .645-.649l.188-1.064.071-.407.383-.157a5.3 5.3 0 0 0 1.162-.659l.323-.24.38.136 1.051.379a.84.84 0 0 0 1.001-.357l.598-1.013.06-.13a.76.76 0 0 0-.234-.858l-.862-.7-.323-.264.053-.414q.043-.326.044-.653-.001-.327-.044-.653l-.053-.414.323-.264.862-.701a.76.76 0 0 0 .174-.987l-.598-1.013a.84.84 0 0 0-.858-.395l-.143.038-1.052.378-.379.136-.323-.24a5.3 5.3 0 0 0-1.162-.658l-.383-.158-.071-.407L11.41 3.6a.8.8 0 0 0-.645-.649l-.143-.013zM10 7.064a2.938 2.938 0 1 1 0 5.875 2.938 2.938 0 0 1 0-5.876m0 1.5a1.437 1.437 0 1 0 0 2.874 1.437 1.437 0 0 0 0-2.874"/></svg>
